X:1
T:Jeppolåt
R:
N:"Jeppo smetton" - har använts som kockdans vid gillen i Österbotten /LS
O:Jeppo, Österbotten, Finland
D:Inspelad av Jeppospelmännen Viktor och Elis Andersson på dubbel-LP:n Mestaripelimannit (1971)
Z:Anton Teljebäck
M:2/4
L:1/8
K:D
FG |: A>A BG | A>D FG | A>B =c/B/A/G/ | A2 FA | d>d ^c/d/e/f/ | gg B>B | Ag e^c |1 dA FG :|2 d2 cd |
|:e2 e>f | gg B>B | Ag fe | f2 dc | B>B GG | gg B>B | Ag ec |1 d2 cd :|2 d2 z2|

